X:160
M:C|
L:1/8
K:G
cBAG FEDC|B,DGD CEAE|FDAF G2G||
c|g2g2 ecce|^caca fdd=c|BgBg ecc^g|a^ga^c d2d=c|B/c/d gd ecce|
^c/d/e ag fd dg/a/|bdBg ecAc|B/c/d DF G2GE||

